assets/svg/icons/crystal_xl.svg

<svg xmlns="http://www.w3.org/2000/svg" fill="none" viewBox="0 0 637 503">
    <mask id="a" width="300" height="400" x="337" y="76" maskUnits="userSpaceOnUse" style="mask-type:alpha">
        <path fill="#D9D9D9" d="m358.089 100.77-20.671-24.582 227.384 4.469 71.79 143.023-197.215 252.244-101.959-24.582 42.46-50.281-21.789-130.173 14.805-55.589-24.861-79.612 10.056-34.917Z"/>
    </mask>
    <g fill="#EAEAEA" fill-rule="evenodd" clip-rule="evenodd" mask="url(#a)" opacity=".86">
        <path d="M235.744 101.916a28.352 28.352 0 0 1 24.616-14.285h110.79c8.799 0 15.931 7.133 15.931 15.931 0 8.799-7.132 15.932-15.931 15.932H262.398l-52.046 91.079 173.066 208.872c5.613 6.775 4.672 16.818-2.103 22.432-6.776 5.613-16.819 4.672-22.432-2.103L184.267 229.03a28.352 28.352 0 0 1-2.785-32.156l54.262-94.958Z"/>
        <path d="M506.553 101.916a28.352 28.352 0 0 0-24.616-14.285h-110.79c-8.799 0-15.932 7.133-15.932 15.931 0 8.799 7.133 15.932 15.932 15.932h108.752l52.045 91.079-173.065 208.872c-5.613 6.775-4.672 16.818 2.103 22.432 6.775 5.613 16.819 4.672 22.432-2.103L558.03 229.03a28.352 28.352 0 0 0 2.785-32.156l-54.262-94.958Z"/>
        <path d="M178.227 215.361c0-8.799 7.132-15.931 15.931-15.931h347.783c8.799 0 15.932 7.132 15.932 15.931s-7.133 15.932-15.932 15.932H194.158c-8.799 0-15.931-7.133-15.931-15.932Z"/>
        <path d="M340.396 98.359c8.029 3.599 11.62 13.025 8.021 21.054l-37.656 84.002 75.25 195.652c3.159 8.212-.938 17.43-9.15 20.588-8.212 3.159-17.43-.938-20.589-9.15L280.497 213.49a28.355 28.355 0 0 1 .591-21.776l38.254-85.335c3.599-8.028 13.025-11.62 21.054-8.02Z"/>
        <path d="M401.901 98.359c-8.029 3.599-11.62 13.025-8.021 21.054l37.656 84.002-75.25 195.652c-3.159 8.212.938 17.43 9.15 20.588 8.212 3.159 17.43-.938 20.589-9.15L461.8 213.49a28.355 28.355 0 0 0-.591-21.776l-38.254-85.335c-3.599-8.028-13.025-11.62-21.054-8.02Z"/>
    </g>
    <mask id="b" width="313" height="411" x="45" y="49" maskUnits="userSpaceOnUse" style="mask-type:alpha">
        <path fill="#D9D9D9" d="m270.15 106.033-25.639-20.566L80.519 49.983 45.524 256.308l277.882 202.814 34.193-63.258-50.045-123.877 3.912-54.715-43.642-78.072 2.326-33.168Z"/>
    </mask>
    <g fill="#EAEAEA" fill-rule="evenodd" clip-rule="evenodd" mask="url(#b)" opacity=".86">
        <path d="M154.557 132.973a28.353 28.353 0 0 1 20.873-19.348l108.079-24.36c8.584-1.934 17.11 3.456 19.045 12.039 1.934 8.584-3.456 17.11-12.039 19.045L184.424 144.26l-30.747 100.293 214.755 165.709c6.966 5.375 8.256 15.38 2.881 22.346-5.375 6.966-15.38 8.255-22.346 2.88L132.288 268.295a28.352 28.352 0 0 1-9.786-30.757l32.055-104.565Z"/>
        <path d="M418.75 73.428a28.352 28.352 0 0 0-27.155-8.523L283.516 89.263c-8.583 1.934-13.973 10.46-12.039 19.044 1.935 8.584 10.462 13.974 19.045 12.039l106.091-23.911 70.797 77.407-122.905 241.812c-3.987 7.844-.86 17.434 6.983 21.421 7.844 3.987 17.434.86 21.421-6.984l124.007-243.979a28.352 28.352 0 0 0-4.354-31.981L418.75 73.428Z"/>
        <path d="M123.399 256.286c-1.934-8.584 3.456-17.11 12.039-19.045l339.273-76.466c8.583-1.935 17.11 3.455 19.044 12.038 1.935 8.584-3.455 17.11-12.039 19.045l-339.272 76.466c-8.584 1.935-17.11-3.455-19.045-12.038Z"/>
        <path d="M255.869 106.493c8.624 1.746 14.2 10.152 12.454 18.776l-18.265 90.226 116.426 174.318c4.887 7.317 2.917 17.21-4.399 22.097-7.317 4.887-17.21 2.917-22.097-4.4L222.75 231.977a28.353 28.353 0 0 1-4.212-21.373l18.555-91.657c1.746-8.624 10.152-14.2 18.776-12.454Z"/>
        <path d="M315.878 92.97c-7.041 5.277-8.471 15.262-3.195 22.303l55.204 73.667-30.391 207.409c-1.276 8.706 4.747 16.798 13.453 18.073 8.706 1.276 16.797-4.747 18.073-13.453l30.603-208.854a28.35 28.35 0 0 0-5.364-21.113l-56.08-74.836c-5.276-7.041-15.262-8.472-22.303-3.195Z"/>
    </g>
    <path fill="#EAEAEA" d="m318.191 184.127 4.037-21.584 18.167 12.427-3.364 15.698-18.84-6.541ZM289.431 104.765l-9.712-9.763 1.457-2.79 16.025 5.812v8.834l-7.77 7.438v-9.531ZM336.309 113.695l4.6-16.562 6.441 3.68v12.882h-11.041ZM307.484 76.37l5.521-23.003 9.662 17.943-15.183 5.06ZM305.162 421.98l-17.482-3.286 11.007-10.516 6.475 13.802ZM314.121 439.73l26.946-2.346 3.881 16.006-16.006 3.881-14.821-17.541ZM264.905 448.972l6.222-11.587v27.129l-12.126-7.242 5.904-8.3ZM356.174 259.994l12.882 6.887v10.596h-12.882v-17.483Z"/>
</svg>

<svg width="637" height="503" viewBox="0 0 637 503" fill="none" xmlns="http://www.w3.org/2000/svg">
<mask id="mask0_1394_126065" style="mask-type:alpha" maskUnits="userSpaceOnUse" x="337" y="76" width="300" height="400">
<path d="M358.089 100.77L337.418 76.1875L564.802 80.657L636.592 223.68L439.377 475.924L337.418 451.342L379.878 401.061L358.089 270.888L372.894 215.299L348.033 135.687L358.089 100.77Z" fill="#D9D9D9"/>
</mask>
<g mask="url(#mask0_1394_126065)">
<g opacity="0.86">
<path fill-rule="evenodd" clip-rule="evenodd" d="M235.744 101.916C240.792 93.0826 250.186 87.6309 260.36 87.6309H371.15C379.949 87.6309 387.081 94.7636 387.081 103.562C387.081 112.361 379.949 119.494 371.15 119.494H262.398L210.352 210.573L383.418 419.445C389.031 426.22 388.09 436.263 381.315 441.877C374.539 447.49 364.496 446.549 358.883 439.774L184.267 229.03C176.733 219.938 175.623 207.127 181.482 196.874L235.744 101.916Z" fill="#EAEAEA"/>
<path fill-rule="evenodd" clip-rule="evenodd" d="M506.553 101.916C501.505 93.0826 492.111 87.6309 481.937 87.6309H371.147C362.348 87.6309 355.215 94.7636 355.215 103.562C355.215 112.361 362.348 119.494 371.147 119.494H479.899L531.944 210.573L358.879 419.445C353.266 426.22 354.207 436.263 360.982 441.877C367.757 447.49 377.801 446.549 383.414 439.774L558.03 229.03C565.564 219.938 566.674 207.127 560.815 196.874L506.553 101.916Z" fill="#EAEAEA"/>
<path fill-rule="evenodd" clip-rule="evenodd" d="M178.227 215.361C178.227 206.562 185.359 199.43 194.158 199.43H541.941C550.74 199.43 557.873 206.562 557.873 215.361C557.873 224.16 550.74 231.293 541.941 231.293H194.158C185.359 231.293 178.227 224.16 178.227 215.361Z" fill="#EAEAEA"/>
<path fill-rule="evenodd" clip-rule="evenodd" d="M340.396 98.3587C348.425 101.958 352.016 111.384 348.417 119.413L310.761 203.415L386.011 399.067C389.17 407.279 385.073 416.497 376.861 419.655C368.649 422.814 359.431 418.717 356.272 410.505L280.497 213.49C277.787 206.442 277.999 198.605 281.088 191.714L319.342 106.379C322.941 98.3506 332.367 94.7596 340.396 98.3587Z" fill="#EAEAEA"/>
<path fill-rule="evenodd" clip-rule="evenodd" d="M401.901 98.3587C393.872 101.958 390.281 111.384 393.88 119.413L431.536 203.415L356.286 399.067C353.127 407.279 357.224 416.497 365.436 419.655C373.648 422.814 382.866 418.717 386.025 410.505L461.8 213.49C464.51 206.442 464.298 198.605 461.209 191.714L422.955 106.379C419.356 98.3506 409.93 94.7596 401.901 98.3587Z" fill="#EAEAEA"/>
</g>
</g>
<mask id="mask1_1394_126065" style="mask-type:alpha" maskUnits="userSpaceOnUse" x="45" y="49" width="313" height="411">
<path d="M270.15 106.033L244.511 85.4674L80.5189 49.9825L45.5239 256.309L323.406 459.123L357.599 395.865L307.554 271.988L311.466 217.273L267.824 139.201L270.15 106.033Z" fill="#D9D9D9"/>
</mask>
<g mask="url(#mask1_1394_126065)">
<g opacity="0.86">
<path fill-rule="evenodd" clip-rule="evenodd" d="M154.557 132.973C157.539 123.246 165.505 115.862 175.43 113.625L283.509 89.2655C292.093 87.3309 300.619 92.7209 302.554 101.304C304.488 109.888 299.098 118.414 290.515 120.349L184.424 144.26L153.677 244.553L368.432 410.262C375.398 415.637 376.688 425.642 371.313 432.608C365.938 439.574 355.933 440.863 348.967 435.488L132.288 268.295C122.939 261.081 119.041 248.828 122.502 237.538L154.557 132.973Z" fill="#EAEAEA"/>
<path fill-rule="evenodd" clip-rule="evenodd" d="M418.75 73.4281C411.883 65.9203 401.52 62.6675 391.595 64.9045L283.516 89.2638C274.933 91.1984 269.543 99.7248 271.477 108.308C273.412 116.892 281.939 122.282 290.522 120.347L396.613 96.4356L467.41 173.843L344.505 415.655C340.518 423.499 343.645 433.089 351.488 437.076C359.332 441.063 368.922 437.936 372.909 430.092L496.916 186.113C502.266 175.586 500.532 162.846 492.562 154.132L418.75 73.4281Z" fill="#EAEAEA"/>
<path fill-rule="evenodd" clip-rule="evenodd" d="M123.399 256.286C121.465 247.702 126.855 239.176 135.438 237.241L474.711 160.775C483.294 158.84 491.821 164.23 493.755 172.813C495.69 181.397 490.3 189.923 481.716 191.858L142.444 268.324C133.86 270.259 125.334 264.869 123.399 256.286Z" fill="#EAEAEA"/>
<path fill-rule="evenodd" clip-rule="evenodd" d="M255.869 106.493C264.493 108.239 270.069 116.645 268.323 125.269L250.058 215.495L366.484 389.813C371.371 397.13 369.401 407.023 362.085 411.91C354.768 416.797 344.875 414.827 339.988 407.51L222.75 231.977C218.556 225.698 217.04 218.005 218.538 210.604L237.093 118.947C238.839 110.323 247.245 104.747 255.869 106.493Z" fill="#EAEAEA"/>
<path fill-rule="evenodd" clip-rule="evenodd" d="M315.878 92.9705C308.837 98.2469 307.407 108.232 312.683 115.273L367.887 188.94L337.496 396.349C336.22 405.055 342.243 413.147 350.949 414.422C359.655 415.698 367.746 409.675 369.022 400.969L399.625 192.115C400.72 184.643 398.789 177.044 394.261 171.002L338.181 96.1657C332.905 89.1247 322.919 87.6941 315.878 92.9705Z" fill="#EAEAEA"/>
</g>
</g>
<path d="M318.191 184.127L322.228 162.543L340.395 174.97L337.031 190.668L318.191 184.127Z" fill="#EAEAEA"/>
<path d="M289.431 104.765L279.719 95.0023L281.176 92.2129L297.201 98.0243V106.858L289.431 114.296V104.765Z" fill="#EAEAEA"/>
<path d="M336.309 113.695L340.909 97.1328L347.35 100.813V113.695H336.309Z" fill="#EAEAEA"/>
<path d="M307.484 76.3705L313.005 53.3672L322.667 71.3098L307.484 76.3705Z" fill="#EAEAEA"/>
<path d="M305.162 421.98L287.68 418.694L298.687 408.178L305.162 421.98Z" fill="#EAEAEA"/>
<path d="M314.121 439.73L341.067 437.384L344.948 453.39L328.942 457.271L314.121 439.73Z" fill="#EAEAEA"/>
<path d="M264.905 448.972L271.127 437.385L271.127 464.514L259.001 457.272L264.905 448.972Z" fill="#EAEAEA"/>
<path d="M356.174 259.994L369.056 266.881V277.477H356.174V259.994Z" fill="#EAEAEA"/>
</svg>
